X: 10695
T: Down The Wild River
R: jig
M: 6/8
K: Aminor
AB|c2d cBA|B2G AAB|c2d cBA|GAB EGB|
cBA eAc|BAG A2 B|cdc BAG|(A3A2)A|
efe cAe|deB eGe|cdc edc|Be^G eEe|
efe cAe|deB eGe|cdc edc|BAG A3|

